Examples/body2.svg

<?xml version='1.0' encoding='utf8'?>
<svg xmlns:svg="http://www.w3.org/2000/svg" viewBox="0 0 100 100"><svg:g fill="black"><svg:g><svg:path d="M 37.47646409894328,32.921861772557875 A 8.0,8.0 -23 0,0 52.20454175418233,26.670163716729494 M 37.47646409894328,32.921861772557875 A 8.0,8.0 -23 0,1 52.20454175418233,26.670163716729494" /><svg:path d="M 38.58331271882319,38.6461789901454 L 57.34939119013081,35.67392415438101 L 61.41668728117681,61.3538210098546 L 42.65060880986919,64.32607584561899 L 38.58331271882319,38.6461789901454" /></svg:g><svg:g><svg:g><svg:g><svg:path d="M 51.645499829529754,64.89868480793021 L 46.38280914452049,82.11217041526484 L 37.77606634085318,79.48082507276021 L 43.03875702586244,62.26733946542557 L 51.645499829529754,64.89868480793021" /><svg:path d="M 46.8347203241626,82.34158271588727 L 40.65438043666366,101.36271304179033 L 31.14381527371212,98.27254309804087 L 37.32415516121107,79.25141277213778 L 46.8347203241626,82.34158271588727" /></svg:g><svg:g><svg:path d="M 59.71785981412938,62.30615414002807 L 58.322730339246874,82.25743514522455 L 52.33734603768793,81.83889630275979 L 53.73247551257043,61.887615297563315 L 59.71785981412938,62.30615414002807" /><svg:path d="M 59.03877360673455,83.54659209765583 L 52.67046151866405,99.30871762529121 L 45.25299068212975,96.31186487796391 L 51.62130277020025,80.54973935032854 L 59.03877360673455,83.54659209765583" /></svg:g></svg:g><svg:g><svg:g><svg:path d="M 39.113030888224465,48.5320914446093 L 22.278473719617768,46.166148728288185 L 23.25268542633823,39.234272247097195 L 40.08724259494492,41.6002149634183 L 39.113030888224465,48.5320914446093" /><svg:path d="M 24.133660146280672,46.45898097083632 L 9.09857821370614,51.93130326404702 L 6.362417067100786,44.41376229775975 L 21.397498999675324,38.94144000454905 L 24.133660146280672,46.45898097083632" /></svg:g><svg:g><svg:path d="M 60.75320947311105,39.53416041258232 L 72.45486869901778,50.446134173582294 L 67.68088017858028,55.565610084916486 L 55.979220952673565,44.65363632391651 L 60.75320947311105,39.53416041258232" /><svg:path d="M 71.64117541642364,51.06300722560696 L 87.18409464556304,63.64941504660371 L 84.03749269031385,67.53514485388857 L 68.49457346117444,54.94873703289181 L 71.64117541642364,51.06300722560696" /></svg:g></svg:g></svg:g></svg:g></svg>

<?xml version="1.0" encoding="UTF-8" standalone="no"?>
<svg
   xmlns:dc="http://purl.org/dc/elements/1.1/"
   xmlns:cc="http://creativecommons.org/ns#"
   xmlns:rdf="http://www.w3.org/1999/02/22-rdf-syntax-ns#"
   xmlns:svg="http://www.w3.org/2000/svg"
   xmlns="http://www.w3.org/2000/svg"
   xmlns:sodipodi="http://sodipodi.sourceforge.net/DTD/sodipodi-0.dtd"
   xmlns:inkscape="http://www.inkscape.org/namespaces/inkscape"
   viewBox="0 0 100 100"
   version="1.1"
   id="svg86"
   sodipodi:docname="body2.svg"
   inkscape:version="0.92.2 5c3e80d, 2017-08-06">
  <metadata
     id="metadata92">
    <rdf:RDF>
      <cc:Work
         rdf:about="">
        <dc:format>image/svg+xml</dc:format>
        <dc:type
           rdf:resource="http://purl.org/dc/dcmitype/StillImage" />
      </cc:Work>
    </rdf:RDF>
  </metadata>
  <defs
     id="defs90" />
  <sodipodi:namedview
     pagecolor="#ffffff"
     bordercolor="#666666"
     borderopacity="1"
     objecttolerance="10"
     gridtolerance="10"
     guidetolerance="10"
     inkscape:pageopacity="0"
     inkscape:pageshadow="2"
     inkscape:window-width="802"
     inkscape:window-height="480"
     id="namedview88"
     showgrid="false"
     inkscape:zoom="2.36"
     inkscape:cx="50"
     inkscape:cy="50"
     inkscape:window-x="0"
     inkscape:window-y="0"
     inkscape:window-maximized="0"
     inkscape:current-layer="svg86" />
  <g
     id="g84"
     transform="translate(0.42372881,-11.016949)"
     style="fill:#000000">
    <g
       id="g52">
      <path
         d="M 37.476464,32.921862 A 8,8 -23 0 0 52.204542,26.670164 M 37.476464,32.921862 A 8,8 -23 0 1 52.204542,26.670164"
         id="path48"
         inkscape:connector-curvature="0" />
      <path
         d="M 38.583313,38.646179 57.349391,35.673924 61.416687,61.353821 42.650609,64.326076 38.583313,38.646179"
         id="path50"
         inkscape:connector-curvature="0" />
    </g>
    <g
       id="g82">
      <g
         id="g66">
        <g
           id="g58">
          <path
             d="M 51.6455,64.898685 46.382809,82.11217 37.776066,79.480825 43.038757,62.267339 51.6455,64.898685"
             id="path54"
             inkscape:connector-curvature="0" />
          <path
             d="m 46.83472,82.341583 -6.18034,19.021127 -9.510565,-3.090167 6.18034,-19.02113 9.510565,3.09017"
             id="path56"
             inkscape:connector-curvature="0" />
        </g>
        <g
           id="g64">
          <path
             d="m 59.71786,62.306154 -1.39513,19.951281 -5.985384,-0.418539 1.39513,-19.951281 5.985384,0.418539"
             id="path60"
             inkscape:connector-curvature="0" />
          <path
             d="m 59.038774,83.546592 -6.368312,15.762126 -7.417471,-2.996853 6.368312,-15.762126 7.417471,2.996853"
             id="path62"
             inkscape:connector-curvature="0" />
        </g>
      </g>
      <g
         id="g80">
        <g
           id="g72">
          <path
             d="m 39.113031,48.532091 -16.834557,-2.365942 0.974211,-6.931877 16.834558,2.365943 -0.974212,6.931876"
             id="path68"
             inkscape:connector-curvature="0" />
          <path
             d="M 24.13366,46.458981 9.0985782,51.931303 6.3624171,44.413762 21.397499,38.94144 24.13366,46.458981"
             id="path70"
             inkscape:connector-curvature="0" />
        </g>
        <g
           id="g78">
          <path
             d="M 60.753209,39.53416 72.454869,50.446134 67.68088,55.56561 55.979221,44.653636 60.753209,39.53416"
             id="path74"
             inkscape:connector-curvature="0" />
          <path
             d="m 71.641175,51.063007 15.54292,12.586408 -3.146602,3.88573 -15.54292,-12.586408 3.146602,-3.88573"
             id="path76"
             inkscape:connector-curvature="0" />
        </g>
      </g>
    </g>
  </g>
</svg>
